X:1
T:伦敦桥 (London Bridge)
M:4/4
L:1/8
K:C

G A G F | E F G2 | G A G F | E F G2 |
C D E F | G4 | C D E F | G4 |]